X: 223
T: Song of the Maiden's Leap
C: Teton Sioux band 1911-1914
N: Derived from sioux218.krn
O: South Dakota, U.S.A.
N: Teton Sioux Music by Frances Densmore, 1918
Z: transcribed to **kern format by Craig Sapp
L: 1/4
M: 2/4
Q: 1/4=58
K: C clef=bass
%%linebreak <none>
E2 [I:setbarnb 1]||  
[M:3/4]E3 | 
C>A,A, ||  
[M:2/4]D2 ||  
[M:3/4]D2-D/ C/ | 
CC/ A,/A, | 
C2-C/ A,/ ||  
[M:2/4]CC | 
A,A, | 
A,2- ||  
[M:3/4]A,3 | 
A,2C ||  
[M:2/4]CG,/ z/ | 
A,A, | 
E,E, | 
E,2- ||  
[M:3/4]E,3 | 
A,2D ||  
[M:2/4]D3/C/ | 
CC/ A,/ | 
A,A,/ z/ | 
CC/ A,/ | 
A,A, | 
A,2- | 
A,2 | 
A,2- | 
A,2 | 
A,E | 
E(E/ D/) ||  
[M:3/4]C2A, | 
D2(D/ C/) | 
(C>A,)A, | 
CC(C/ A,/) ||  
[M:2/4]C(C/ A,/) | 
A,A, | 
A,2- ||  
[M:3/4]A,3 ||  
[M:2/4]A,A, ||  
[M:3/4]CCG, ||  
[M:2/4]A,A, | 
E,E, | 
E,2- ||  
[M:3/4]E,3 | 
A,A,D ||  
[M:2/4]D3/C/ | 
CC3// A,// | 
A,A,/ z/ | 
CC3// A,// | 
A,A, | 
A,2- | 
A,2 | 
A,z |]  



